packages/ndla-icons/svg/common/InformationOutline.svg

<svg fill="currentColor" height="24" viewBox="0 0 24 24" width="24" xmlns="http://www.w3.org/2000/svg" data-license="Apache License 2.0" data-source="Material Design">
    <path d="M11,9H13V7H11M12,20C7.59,20 4,16.41 4,12C4,7.59 7.59,4 12,4C16.41,4 20,7.59 20,12C20,16.41 16.41,20 12,20M12,2A10,10 0 0,0 2,12A10,10 0 0,0 12,22A10,10 0 0,0 22,12A10,10 0 0,0 12,2M11,17H13V11H11V17Z" />
</svg>

<svg xmlns="http://www.w3.org/2000/svg" fill="currentColor" data-license="Apache License 2.0" data-source="Material Design" viewBox="0 0 24 24">
  <path d="M11 9h2V7h-2m1 13a8 8 0 1 1 0-16 8 8 0 0 1 0 16m0-18A10 10 0 0 0 2 12a10 10 0 0 0 10 10 10 10 0 0 0 10-10A10 10 0 0 0 12 2m-1 15h2v-6h-2v6Z"/>
</svg>
